svg/color/doga.svg

<?xml version="1.0" encoding="UTF-8" ?>
<!DOCTYPE svg PUBLIC "-//W3C//DTD SVG 1.1//EN" "http://www.w3.org/Graphics/SVG/1.1/DTD/svg11.dtd">
<svg width="250pt" height="250pt" viewBox="0 0 250 250" version="1.1" xmlns="http://www.w3.org/2000/svg">
<g id="#ffffffff">
<path fill="#ffffff" opacity="1.00" d=" M 0.00 0.00 L 118.70 0.00 C 118.03 0.06 116.68 0.17 116.00 0.23 C 107.31 0.96 98.67 2.42 90.29 4.84 C 68.05 11.31 47.61 23.99 32.16 41.25 C 12.78 62.54 1.33 90.69 0.00 119.42 L 0.00 0.00 Z" />
<path fill="#ffffff" opacity="1.00" d=" M 130.56 0.00 L 250.00 0.00 L 250.00 118.94 C 248.25 84.17 231.51 50.39 204.42 28.44 C 196.74 22.10 188.29 16.68 179.31 12.35 C 168.45 7.12 156.84 3.47 144.95 1.52 C 140.17 0.84 135.38 0.27 130.56 0.00 Z" />
<path fill="#ffffff" opacity="1.00" d=" M 89.77 48.53 C 91.93 48.51 94.09 48.49 96.25 48.50 C 105.32 48.53 114.40 48.53 123.48 48.46 C 135.43 48.71 147.39 48.20 159.34 48.74 C 166.11 50.13 172.92 51.72 179.08 54.97 C 189.28 60.11 197.79 68.50 202.92 78.73 C 210.14 93.38 210.50 111.03 204.81 126.25 C 199.52 139.72 188.66 150.83 175.32 156.45 C 169.64 158.80 163.65 160.16 157.69 161.56 C 160.57 164.96 164.03 167.82 166.83 171.30 C 164.73 173.60 162.59 175.86 160.31 177.97 C 153.77 183.81 145.75 187.82 137.34 190.17 C 132.23 191.61 126.91 192.09 121.63 192.39 C 107.61 192.19 93.59 192.27 79.58 192.32 C 73.09 192.28 66.60 192.24 60.11 192.32 C 60.00 190.56 59.88 188.79 59.85 187.02 C 59.90 151.13 59.85 115.23 59.88 79.34 C 69.83 79.27 79.78 79.27 89.74 79.26 C 89.81 69.01 89.76 58.77 89.77 48.53 M 105.63 62.85 C 105.54 68.32 105.57 73.79 105.60 79.26 C 111.42 79.26 117.23 79.29 123.05 79.32 C 131.46 79.41 139.70 81.61 147.43 84.80 L 147.41 85.01 C 166.98 93.58 179.97 114.77 178.72 136.11 C 182.79 133.31 185.71 129.12 188.06 124.84 C 195.08 111.05 194.56 93.22 185.72 80.35 C 178.51 70.02 166.09 63.67 153.57 63.32 C 137.62 62.40 121.61 63.08 105.63 62.85 M 75.75 93.76 C 75.64 121.70 75.81 149.64 75.66 177.58 C 91.18 177.76 106.72 177.81 122.23 177.52 C 134.61 177.02 146.81 171.26 154.56 161.49 C 141.27 161.58 127.93 161.19 114.67 161.65 C 106.38 161.22 98.08 161.61 89.79 161.42 C 89.78 139.16 89.82 116.90 89.77 94.65 C 95.48 99.32 100.23 105.02 105.56 110.10 C 105.62 122.33 105.53 134.56 105.60 146.80 C 120.42 146.74 135.25 146.82 150.07 146.73 C 153.99 146.75 157.86 146.11 161.69 145.33 C 163.54 139.12 163.06 132.35 162.11 126.01 C 159.88 114.06 151.65 103.53 140.65 98.39 C 129.79 93.14 117.33 93.29 105.59 94.13 C 100.28 94.43 94.96 94.12 89.65 94.36 L 89.39 93.76 C 84.85 93.82 80.30 93.78 75.75 93.76 Z" />
<path fill="#ffffff" opacity="1.00" d=" M 0.00 130.48 C 1.29 159.25 12.77 187.44 32.16 208.76 C 42.93 220.80 56.17 230.58 70.68 237.65 C 84.25 244.25 99.05 248.20 114.06 249.59 C 115.55 249.74 117.05 249.89 118.55 250.00 L 0.00 250.00 L 0.00 130.48 Z" />
<path fill="#ffffff" opacity="1.00" d=" M 205.60 220.58 C 232.13 198.51 248.46 164.99 250.00 130.55 L 250.00 250.00 L 130.41 250.00 C 132.59 249.87 134.76 249.69 136.93 249.49 C 145.61 248.64 154.20 246.89 162.54 244.33 C 178.27 239.34 193.00 231.25 205.60 220.58 Z" />
</g>
<g id="#5e3185ff">
<path fill="#5e3185" opacity="1.00" d=" M 118.70 0.00 L 130.56 0.00 C 135.38 0.27 140.17 0.84 144.95 1.52 C 146.23 2.81 148.34 3.83 148.01 5.97 C 148.14 19.58 147.71 33.21 148.20 46.81 C 151.94 47.11 156.21 46.11 159.34 48.74 C 147.39 48.20 135.43 48.71 123.48 48.46 C 121.08 47.59 118.52 47.03 116.34 45.68 C 115.61 30.57 116.19 15.37 116.00 0.23 C 116.68 0.17 118.03 0.06 118.70 0.00 Z" />
<path fill="#5e3185" opacity="1.00" d=" M 105.59 94.13 C 117.33 93.29 129.79 93.14 140.65 98.39 C 151.65 103.53 159.88 114.06 162.11 126.01 C 163.06 132.35 163.54 139.12 161.69 145.33 C 157.86 146.11 153.99 146.75 150.07 146.73 C 135.25 146.82 120.42 146.74 105.60 146.80 C 105.53 134.56 105.62 122.33 105.56 110.10 C 105.51 104.78 105.61 99.45 105.59 94.13 Z" />
</g>
<g id="#562f84ff">
<path fill="#562f84" opacity="1.00" d=" M 90.29 4.84 C 98.67 2.42 107.31 0.96 116.00 0.23 C 116.19 15.37 115.61 30.57 116.34 45.68 C 118.52 47.03 121.08 47.59 123.48 48.46 C 114.40 48.53 105.32 48.53 96.25 48.50 C 94.76 47.71 93.32 46.84 91.86 45.98 C 91.68 36.33 91.82 26.68 91.83 17.02 C 91.75 12.94 92.59 8.50 90.29 4.84 Z" />
</g>
<g id="#673287ff">
<path fill="#673287" opacity="1.00" d=" M 144.95 1.52 C 156.84 3.47 168.45 7.12 179.31 12.35 C 178.65 26.55 179.09 40.77 179.08 54.97 C 172.92 51.72 166.11 50.13 159.34 48.74 C 156.21 46.11 151.94 47.11 148.20 46.81 C 147.71 33.21 148.14 19.58 148.01 5.97 C 148.34 3.83 146.23 2.81 144.95 1.52 Z" />
</g>
<g id="#472d81ff">
<path fill="#472d81" opacity="1.00" d=" M 32.16 41.25 C 47.61 23.99 68.05 11.31 90.29 4.84 C 92.59 8.50 91.75 12.94 91.83 17.02 C 91.82 26.68 91.68 36.33 91.86 45.98 C 93.32 46.84 94.76 47.71 96.25 48.50 C 94.09 48.49 91.93 48.51 89.77 48.53 C 89.76 58.77 89.81 69.01 89.74 79.26 C 79.78 79.27 69.83 79.27 59.88 79.34 C 59.85 115.23 59.90 151.13 59.85 187.02 C 59.88 188.79 60.00 190.56 60.11 192.32 C 66.60 192.24 73.09 192.28 79.58 192.32 C 77.09 193.98 74.09 194.17 71.21 194.42 C 70.68 208.82 71.58 223.26 70.68 237.65 C 56.17 230.58 42.93 220.80 32.16 208.76 C 32.60 206.51 33.01 204.25 33.09 201.96 C 32.95 153.29 33.05 104.61 33.04 55.94 C 33.05 51.03 33.40 46.06 32.16 41.25 Z" />
</g>
<g id="#6f3488ff">
<path fill="#6f3488" opacity="1.00" d=" M 179.31 12.35 C 188.29 16.68 196.74 22.10 204.42 28.44 C 203.55 38.60 204.22 48.81 204.03 58.99 C 203.83 65.57 204.87 72.32 202.92 78.73 C 197.79 68.50 189.28 60.11 179.08 54.97 C 179.09 40.77 178.65 26.55 179.31 12.35 Z" />
</g>
<g id="#78368aff">
<path fill="#78368a" opacity="1.00" d=" M 204.42 28.44 C 231.51 50.39 248.25 84.17 250.00 118.94 L 250.00 130.55 C 248.46 164.99 232.13 198.51 205.60 220.58 C 205.94 216.06 205.99 211.52 205.93 207.00 C 206.03 182.35 205.82 157.71 206.07 133.07 C 206.16 130.72 205.56 128.44 204.81 126.25 C 210.50 111.03 210.14 93.38 202.92 78.73 C 204.87 72.32 203.83 65.57 204.03 58.99 C 204.22 48.81 203.55 38.60 204.42 28.44 Z" />
</g>
<g id="#3e2b80ff">
<path fill="#3e2b80" opacity="1.00" d=" M 0.00 119.42 C 1.33 90.69 12.78 62.54 32.16 41.25 C 33.40 46.06 33.05 51.03 33.04 55.94 C 33.05 104.61 32.95 153.29 33.09 201.96 C 33.01 204.25 32.60 206.51 32.16 208.76 C 12.77 187.44 1.29 159.25 0.00 130.48 L 0.00 119.42 Z" />
</g>
<g id="#5d3185ff">
<path fill="#5d3185" opacity="1.00" d=" M 105.63 62.85 C 121.61 63.08 137.62 62.40 153.57 63.32 C 151.79 64.04 150.06 64.88 148.33 65.70 C 147.55 72.05 148.65 78.48 147.43 84.80 C 139.70 81.61 131.46 79.41 123.05 79.32 C 117.23 79.29 111.42 79.26 105.60 79.26 C 105.57 73.79 105.54 68.32 105.63 62.85 Z" />
</g>
<g id="#6a3387ff">
<path fill="#6a3387" opacity="1.00" d=" M 153.57 63.32 C 166.09 63.67 178.51 70.02 185.72 80.35 C 194.56 93.22 195.08 111.05 188.06 124.84 C 185.71 129.12 182.79 133.31 178.72 136.11 C 179.97 114.77 166.98 93.58 147.41 85.01 L 147.43 84.80 C 148.65 78.48 147.55 72.05 148.33 65.70 C 150.06 64.88 151.79 64.04 153.57 63.32 Z" />
</g>
<g id="#502e83ff">
<path fill="#502e83" opacity="1.00" d=" M 75.75 93.76 C 80.30 93.78 84.85 93.82 89.39 93.76 L 89.65 94.36 L 89.77 94.65 C 89.82 116.90 89.78 139.16 89.79 161.42 C 98.08 161.61 106.38 161.22 114.67 161.65 C 109.83 163.90 104.42 162.73 99.29 163.21 C 98.82 167.37 98.80 171.57 99.26 175.73 C 106.80 177.67 114.63 176.06 122.23 177.52 C 106.72 177.81 91.18 177.76 75.66 177.58 C 75.81 149.64 75.64 121.70 75.75 93.76 Z" />
</g>
<g id="#b2b2b2ff">
<path fill="#b2b2b2" opacity="1.00" d=" M 89.65 94.36 C 94.96 94.12 100.28 94.43 105.59 94.13 C 105.61 99.45 105.51 104.78 105.56 110.10 C 100.23 105.02 95.48 99.32 89.77 94.65 L 89.65 94.36 Z" />
<path fill="#b2b2b2" opacity="1.00" d=" M 157.69 161.56 C 163.65 160.16 169.64 158.80 175.32 156.45 C 173.12 161.72 170.57 166.94 166.83 171.30 C 164.03 167.82 160.57 164.96 157.69 161.56 Z" />
</g>
<g id="#6d3488ff">
<path fill="#6d3488" opacity="1.00" d=" M 204.81 126.25 C 205.56 128.44 206.16 130.72 206.07 133.07 C 205.82 157.71 206.03 182.35 205.93 207.00 C 205.99 211.52 205.94 216.06 205.60 220.58 C 193.00 231.25 178.27 239.34 162.54 244.33 C 161.03 242.95 160.97 240.91 161.00 239.01 C 161.13 221.34 160.98 203.67 161.14 185.99 C 161.12 183.30 160.75 180.62 160.31 177.97 C 162.59 175.86 164.73 173.60 166.83 171.30 C 170.57 166.94 173.12 161.72 175.32 156.45 C 188.66 150.83 199.52 139.72 204.81 126.25 Z" />
</g>
<g id="#5b3085ff">
<path fill="#5b3085" opacity="1.00" d=" M 114.67 161.65 C 127.93 161.19 141.27 161.58 154.56 161.49 C 146.81 171.26 134.61 177.02 122.23 177.52 C 114.63 176.06 106.80 177.67 99.26 175.73 C 98.80 171.57 98.82 167.37 99.29 163.21 C 104.42 162.73 109.83 163.90 114.67 161.65 Z" />
</g>
<g id="#633286ff">
<path fill="#633286" opacity="1.00" d=" M 137.34 190.17 C 145.75 187.82 153.77 183.81 160.31 177.97 C 160.75 180.62 161.12 183.30 161.14 185.99 C 160.98 203.67 161.13 221.34 161.00 239.01 C 160.97 240.91 161.03 242.95 162.54 244.33 C 154.20 246.89 145.61 248.64 136.93 249.49 C 137.35 229.72 136.38 209.92 137.34 190.17 Z" />
</g>
<g id="#5c3085ff">
<path fill="#5c3085" opacity="1.00" d=" M 121.63 192.39 C 126.91 192.09 132.23 191.61 137.34 190.17 C 136.38 209.92 137.35 229.72 136.93 249.49 C 134.76 249.69 132.59 249.87 130.41 250.00 L 118.55 250.00 C 117.05 249.89 115.55 249.74 114.06 249.59 C 113.83 235.74 113.99 221.88 113.99 208.02 C 113.89 203.50 113.78 198.98 114.18 194.47 C 116.76 194.16 119.28 193.52 121.63 192.39 Z" />
</g>
<g id="#532f83ff">
<path fill="#532f83" opacity="1.00" d=" M 79.58 192.32 C 93.59 192.27 107.61 192.19 121.63 192.39 C 119.28 193.52 116.76 194.16 114.18 194.47 C 113.78 198.98 113.89 203.50 113.99 208.02 C 113.99 221.88 113.83 235.74 114.06 249.59 C 99.05 248.20 84.25 244.25 70.68 237.65 C 71.58 223.26 70.68 208.82 71.21 194.42 C 74.09 194.17 77.09 193.98 79.58 192.32 Z" />
</g>
</svg>

<?xml version="1.0" encoding="utf-8"?>
<!-- Generator: Adobe Illustrator 26.0.3, SVG Export Plug-In . SVG Version: 6.00 Build 0)  -->
<svg version="1.1" id="Layer_1" xmlns="http://www.w3.org/2000/svg" xmlns:xlink="http://www.w3.org/1999/xlink" x="0px" y="0px"
	 viewBox="0 0 250 250" style="enable-background:new 0 0 250 250;" xml:space="preserve">
<style type="text/css">
	.st0{fill:#FFFFFF;}
	.st1{fill:#5E3185;}
	.st2{fill:#562F84;}
	.st3{fill:#673287;}
	.st4{fill:#472D81;}
	.st5{fill:#6F3488;}
	.st6{fill:#78368A;}
	.st7{fill:#3E2B80;}
	.st8{fill:#5D3185;}
	.st9{fill:#6A3387;}
	.st10{fill:#502E83;}
	.st11{fill:#B2B2B2;}
	.st12{fill:#6D3488;}
	.st13{fill:#5B3085;}
	.st14{fill:#633286;}
	.st15{fill:#5C3085;}
	.st16{fill:#532F83;}
</style>
<g id="_x23_ffffffff">
	<path class="st0" d="M89.8,48.5c2.2,0,4.3,0,6.5,0c9.1,0,18.2,0,27.2,0c11.9,0.2,23.9-0.3,35.9,0.3c6.8,1.4,13.6,3,19.7,6.2
		c10.2,5.1,18.7,13.5,23.8,23.8c7.2,14.6,7.6,32.3,1.9,47.5c-5.3,13.5-16.1,24.6-29.5,30.2c-5.7,2.4-11.7,3.7-17.6,5.1
		c2.9,3.4,6.3,6.3,9.1,9.7c-2.1,2.3-4.2,4.6-6.5,6.7c-6.5,5.8-14.6,9.9-23,12.2c-5.1,1.4-10.4,1.9-15.7,2.2c-14-0.2-28-0.1-42-0.1
		c-6.5,0-13-0.1-19.5,0c-0.1-1.8-0.2-3.5-0.3-5.3c0.1-35.9,0-71.8,0-107.7c10-0.1,19.9-0.1,29.9-0.1C89.8,69,89.8,58.8,89.8,48.5
		 M105.6,62.8c-0.1,5.5-0.1,10.9,0,16.4c5.8,0,11.6,0,17.5,0.1c8.4,0.1,16.6,2.3,24.4,5.5l0,0.2c19.6,8.6,32.6,29.8,31.3,51.1
		c4.1-2.8,7-7,9.3-11.3c7-13.8,6.5-31.6-2.3-44.5c-7.2-10.3-19.6-16.7-32.1-17C137.6,62.4,121.6,63.1,105.6,62.8 M75.8,93.8
		c-0.1,27.9,0.1,55.9-0.1,83.8c15.5,0.2,31.1,0.2,46.6-0.1c12.4-0.5,24.6-6.3,32.3-16c-13.3,0.1-26.6-0.3-39.9,0.2
		c-8.3-0.4-16.6,0-24.9-0.2c0-22.3,0-44.5,0-66.8c5.7,4.7,10.5,10.4,15.8,15.4c0.1,12.2,0,24.5,0,36.7c14.8-0.1,29.7,0,44.5-0.1
		c3.9,0,7.8-0.6,11.6-1.4c1.8-6.2,1.4-13,0.4-19.3c-2.2-12-10.5-22.5-21.5-27.6c-10.9-5.2-23.3-5.1-35.1-4.3
		c-5.3,0.3-10.6,0-15.9,0.2l-0.3-0.6C84.8,93.8,80.3,93.8,75.8,93.8z"/>
</g>
<g id="_x23_5e3185ff">
	<path class="st1" d="M118.7,0h11.9c4.8,0.3,9.6,0.8,14.4,1.5c1.3,1.3,3.4,2.3,3.1,4.4c0.1,13.6-0.3,27.2,0.2,40.8
		c3.7,0.3,8-0.7,11.1,1.9c-11.9-0.5-23.9,0-35.9-0.3c-2.4-0.9-5-1.4-7.1-2.8c-0.7-15.1-0.1-30.3-0.3-45.5C116.7,0.2,118,0.1,118.7,0
		z"/>
	<path class="st1" d="M105.6,94.1c11.7-0.8,24.2-1,35.1,4.3c11,5.1,19.2,15.7,21.5,27.6c0.9,6.3,1.4,13.1-0.4,19.3
		c-3.8,0.8-7.7,1.4-11.6,1.4c-14.8,0.1-29.7,0-44.5,0.1c-0.1-12.2,0-24.5,0-36.7C105.5,104.8,105.6,99.4,105.6,94.1z"/>
</g>
<g id="_x23_562f84ff">
	<path class="st2" d="M90.3,4.8c8.4-2.4,17-3.9,25.7-4.6c0.2,15.1-0.4,30.3,0.3,45.5c2.2,1.3,4.7,1.9,7.1,2.8
		c-9.1,0.1-18.2,0.1-27.2,0c-1.5-0.8-2.9-1.7-4.4-2.5c-0.2-9.6,0-19.3,0-29C91.8,12.9,92.6,8.5,90.3,4.8z"/>
</g>
<g id="_x23_673287ff">
	<path class="st3" d="M144.9,1.5c11.9,2,23.5,5.6,34.4,10.8c-0.7,14.2-0.2,28.4-0.2,42.6c-6.2-3.2-13-4.8-19.7-6.2
		c-3.1-2.6-7.4-1.6-11.1-1.9c-0.5-13.6-0.1-27.2-0.2-40.8C148.3,3.8,146.2,2.8,144.9,1.5z"/>
</g>
<g id="_x23_472d81ff">
	<path class="st4" d="M32.2,41.2C47.6,24,68.1,11.3,90.3,4.8c2.3,3.7,1.5,8.1,1.5,12.2c0,9.7-0.2,19.3,0,29c1.5,0.9,2.9,1.7,4.4,2.5
		c-2.2,0-4.3,0-6.5,0c0,10.2,0,20.5,0,30.7c-10,0-19.9,0-29.9,0.1c0,35.9,0,71.8,0,107.7c0,1.8,0.2,3.5,0.3,5.3c6.5-0.1,13,0,19.5,0
		c-2.5,1.7-5.5,1.8-8.4,2.1c-0.5,14.4,0.4,28.8-0.5,43.2c-14.5-7.1-27.8-16.8-38.5-28.9c0.4-2.2,0.8-4.5,0.9-6.8
		c-0.1-48.7,0-97.4,0-146C33,51,33.4,46.1,32.2,41.2z"/>
</g>
<g id="_x23_6f3488ff">
	<path class="st5" d="M179.3,12.4c9,4.3,17.4,9.8,25.1,16.1c-0.9,10.2-0.2,20.4-0.4,30.6c-0.2,6.6,0.8,13.3-1.1,19.7
		c-5.1-10.2-13.6-18.6-23.8-23.8C179.1,40.8,178.6,26.5,179.3,12.4z"/>
</g>
<g id="_x23_78368aff">
	<path class="st6" d="M204.4,28.4c27.1,21.9,43.8,55.7,45.6,90.5v11.6c-1.5,34.4-17.9,68-44.4,90c0.3-4.5,0.4-9.1,0.3-13.6
		c0.1-24.6-0.1-49.3,0.1-73.9c0.1-2.4-0.5-4.6-1.3-6.8c5.7-15.2,5.3-32.9-1.9-47.5c1.9-6.4,0.9-13.2,1.1-19.7
		C204.2,48.8,203.6,38.6,204.4,28.4z"/>
</g>
<g id="_x23_3e2b80ff">
	<path class="st7" d="M0,119.4c1.3-28.7,12.8-56.9,32.2-78.2C33.4,46.1,33,51,33,55.9c0,48.7-0.1,97.3,0,146
		c-0.1,2.3-0.5,4.5-0.9,6.8C12.8,187.4,1.3,159.2,0,130.5V119.4z"/>
</g>
<g id="_x23_5d3185ff">
	<path class="st8" d="M105.6,62.8c16,0.2,32-0.4,47.9,0.5c-1.8,0.7-3.5,1.6-5.2,2.4c-0.8,6.4,0.3,12.8-0.9,19.1
		c-7.7-3.2-16-5.4-24.4-5.5c-5.8,0-11.6-0.1-17.5-0.1C105.6,73.8,105.5,68.3,105.6,62.8z"/>
</g>
<g id="_x23_6a3387ff">
	<path class="st9" d="M153.6,63.3c12.5,0.3,24.9,6.7,32.1,17c8.8,12.9,9.4,30.7,2.3,44.5c-2.3,4.3-5.3,8.5-9.3,11.3
		C180,114.8,167,93.6,147.4,85l0-0.2c1.2-6.3,0.1-12.8,0.9-19.1C150.1,64.9,151.8,64,153.6,63.3z"/>
</g>
<g id="_x23_502e83ff">
	<path class="st10" d="M75.8,93.8c4.6,0,9.1,0.1,13.6,0l0.3,0.6l0.1,0.3c0.1,22.2,0,44.5,0,66.8c8.3,0.2,16.6-0.2,24.9,0.2
		c-4.8,2.2-10.2,1.1-15.4,1.6c-0.5,4.2-0.5,8.4,0,12.5c7.5,1.9,15.4,0.3,23,1.8c-15.5,0.3-31.1,0.2-46.6,0.1
		C75.8,149.6,75.6,121.7,75.8,93.8z"/>
</g>
<g id="_x23_b2b2b2ff">
	<path class="st11" d="M89.7,94.4c5.3-0.2,10.6,0.1,15.9-0.2c0,5.3-0.1,10.7,0,16c-5.3-5.1-10.1-10.8-15.8-15.4L89.7,94.4z"/>
	<path class="st11" d="M157.7,161.6c6-1.4,11.9-2.8,17.6-5.1c-2.2,5.3-4.8,10.5-8.5,14.9C164,167.8,160.6,165,157.7,161.6z"/>
</g>
<g id="_x23_6d3488ff">
	<path class="st12" d="M204.8,126.2c0.8,2.2,1.4,4.5,1.3,6.8c-0.2,24.6,0,49.3-0.1,73.9c0.1,4.5,0,9.1-0.3,13.6
		c-12.6,10.7-27.3,18.8-43.1,23.8c-1.5-1.4-1.6-3.4-1.5-5.3c0.1-17.7,0-35.3,0.1-53c0-2.7-0.4-5.4-0.8-8c2.3-2.1,4.4-4.4,6.5-6.7
		c3.7-4.4,6.3-9.6,8.5-14.9C188.7,150.8,199.5,139.7,204.8,126.2z"/>
</g>
<g id="_x23_5b3085ff">
	<path class="st13" d="M114.7,161.6c13.3-0.5,26.6-0.1,39.9-0.2c-7.8,9.8-19.9,15.5-32.3,16c-7.6-1.5-15.4,0.1-23-1.8
		c-0.5-4.2-0.4-8.4,0-12.5C104.4,162.7,109.8,163.9,114.7,161.6z"/>
</g>
<g id="_x23_633286ff">
	<path class="st14" d="M137.3,190.2c8.4-2.3,16.4-6.4,23-12.2c0.4,2.6,0.8,5.3,0.8,8c-0.2,17.7,0,35.3-0.1,53c0,1.9,0,3.9,1.5,5.3
		c-8.3,2.6-16.9,4.3-25.6,5.2C137.4,229.7,136.4,209.9,137.3,190.2z"/>
</g>
<g id="_x23_5c3085ff">
	<path class="st15" d="M121.6,192.4c5.3-0.3,10.6-0.8,15.7-2.2c-1,19.8,0,39.6-0.4,59.3c-2.2,0.2-4.3,0.4-6.5,0.5h-11.9
		c-1.5-0.1-3-0.3-4.5-0.4c-0.2-13.8-0.1-27.7-0.1-41.6c-0.1-4.5-0.2-9,0.2-13.6C116.8,194.2,119.3,193.5,121.6,192.4z"/>
</g>
<g id="_x23_532f83ff">
	<path class="st16" d="M79.6,192.3c14-0.1,28-0.1,42,0.1c-2.3,1.1-4.9,1.8-7.4,2.1c-0.4,4.5-0.3,9-0.2,13.6
		c0,13.9-0.2,27.7,0.1,41.6c-15-1.4-29.8-5.3-43.4-11.9c0.9-14.4,0-28.8,0.5-43.2C74.1,194.2,77.1,194,79.6,192.3z"/>
</g>
</svg>
